X: 3
T: The Maids Of Ardagh
R: polka
M: 2/4
L: 1/8
K: Dmaj
|:F/2G/2 AB A|de f2|f e/2f/2 gc|ed BA|
F/2G/2 AB A|de f2| f e/2f/2 gc|edd2:|
|:e f/2e/2 ce|fea2|e f/2e/2 ce|fe c/2B/2 A|
e f/2e/2 ce|fea2|e f/2e/2 dB|BAA2:|


Tune 466	Setting 19392

